;FLAVOR:Marlin
;TIME:104
;Filament used: 0.0596921m
;Layer height: 0.2
;MINX:101.5
;MINY:101.5
;MINZ:0.2
;MAXX:133.5
;MAXY:133.5
;MAXZ:1
;TARGET_MACHINE.NAME:Creality Ender-3
;Generated with Cura_SteamEngine 5.10.0
M140 S50
M105
M190 S50
M104 S200
M105
M109 S200
; Ender 3 Custom Start G-code
G92 E0 ; Reset Extruder
G28 ; Home all axes
G1 Z2.0 F3000 ; Move Z Axis up little to prevent scratching of Heat Bed
G1 X0.1 Y20 Z0.3 F5000.0 ; Move to start position
G1 X0.1 Y200.0 Z0.3 F1500.0 E15 ; Draw the first line
G1 X0.4 Y200.0 Z0.3 F5000.0 ; Move to side a little
G1 X0.4 Y20 Z0.3 F1500.0 E30 ; Draw the second line
G92 E0 ; Reset Extruder
G1 Z2.0 F3000 ; Move Z Axis up little to prevent scratching of Heat Bed
G1 X5 Y20 Z0.3 F5000.0 ; Move over to prevent blob squish
M82 ;absolute extrusion mode
G92 E0
G92 E0
G1 F2700 E-5
;LAYER_COUNT:5
;LAYER:0
M107
G0 F6000 X104.956 Y104.513 Z0.2
;TYPE:SKIRT
G1 F2700 E0
G1 F1200 X105.692 Y103.876 E0.03237
G1 X106.424 Y103.346 E0.06243
G1 X107.321 Y102.811 E0.09717
G1 X108.199 Y102.39 E0.12956
G1 X109.112 Y102.048 E0.16198
G1 X110.049 Y101.789 E0.19432
G1 X111.016 Y101.611 E0.22702
G1 X112.155 Y101.515 E0.26504
G1 X112.812 Y101.5 E0.2869
G1 X121.804 Y101.5 E0.58597
G1 X122.684 Y101.513 E0.61524
G1 X123.656 Y101.572 E0.64763
G1 X124.619 Y101.718 E0.68003
G1 X125.566 Y101.949 E0.71245
G1 X126.454 Y102.249 E0.74362
G1 X127.346 Y102.639 E0.776
G1 X128.229 Y103.126 E0.80954
G1 X128.98 Y103.628 E0.83959
G1 X129.795 Y104.286 E0.87443
G1 X130.493 Y104.964 E0.90679
G1 X131.129 Y105.701 E0.93917
G1 X131.699 Y106.491 E0.97157
G1 X132.161 Y107.267 E1.00161
G1 X132.615 Y108.209 E1.03639
G1 X132.944 Y109.087 E1.06757
G1 X133.213 Y110.059 E1.10112
G1 X133.39 Y111.025 E1.13378
G1 X133.485 Y112.155 E1.1715
G1 X133.5 Y112.83 E1.19395
G1 X133.499 Y121.9 E1.49562
G1 X133.488 Y122.663 E1.521
G1 X133.431 Y123.636 E1.55342
G1 X133.286 Y124.599 E1.58581
G1 X133.057 Y125.545 E1.61818
G1 X132.746 Y126.469 E1.65061
G1 X132.354 Y127.36 E1.68299
G1 X131.886 Y128.212 E1.71532
G1 X131.364 Y128.993 E1.74656
G1 X130.731 Y129.778 E1.7801
G1 X130.106 Y130.429 E1.81012
G1 X129.317 Y131.117 E1.84494
G1 X128.557 Y131.667 E1.87614
G1 X127.69 Y132.184 E1.90971
G1 X126.812 Y132.606 E1.94211
G1 X125.901 Y132.948 E1.97448
G1 X124.962 Y133.209 E2.00689
G1 X123.996 Y133.387 E2.03956
G1 X122.845 Y133.485 E2.07798
G1 X122.17 Y133.5 E2.10044
G1 X113.064 Y133.499 E2.40331
G1 X112.331 Y133.488 E2.42769
G1 X111.359 Y133.431 E2.46007
G1 X110.396 Y133.285 E2.49247
G1 X109.45 Y133.056 E2.52484
G1 X108.526 Y132.744 E2.55728
G1 X107.636 Y132.352 E2.58962
G1 X106.813 Y131.901 E2.62084
G1 X105.974 Y131.34 E2.65441
G1 X105.27 Y130.774 E2.68445
G1 X104.517 Y130.049 E2.71922
G1 X103.88 Y129.313 E2.75159
G1 X103.35 Y128.582 E2.78162
G1 X102.814 Y127.685 E2.81638
G1 X102.392 Y126.807 E2.84878
G1 X102.05 Y125.895 E2.88117
G1 X101.79 Y124.957 E2.91355
G1 X101.612 Y123.988 E2.94632
G1 X101.514 Y122.809 E2.98567
G1 X101.5 Y122.158 E3.00732
G1 X101.501 Y113.025 E3.31109
G1 X101.512 Y112.325 E3.33437
G1 X101.57 Y111.352 E3.36679
G1 X101.716 Y110.389 E3.39919
G1 X101.946 Y109.443 E3.43157
G1 X102.259 Y108.52 E3.46399
G1 X102.651 Y107.63 E3.49633
G1 X103.121 Y106.777 E3.52872
G1 X103.664 Y105.969 E3.5611
G1 X104.231 Y105.265 E3.59117
G1 X104.956 Y104.513 E3.62591
G0 F6000 X105.218 Y104.815
G1 F1200 X105.927 Y104.2 E3.65713
G1 X106.659 Y103.67 E3.68719
G1 X107.495 Y103.171 E3.71957
G1 X108.34 Y102.764 E3.75076
G1 X109.219 Y102.433 E3.782
G1 X110.122 Y102.182 E3.81317
G1 X111.05 Y102.01 E3.84457
G1 X112.189 Y101.914 E3.88258
G1 X112.821 Y101.9 E3.90361
G1 X121.798 Y101.9 E4.20218
G1 X122.66 Y101.912 E4.23086
G1 X123.597 Y101.968 E4.26208
G1 X124.525 Y102.107 E4.29329
G1 X125.438 Y102.328 E4.32453
G1 X126.294 Y102.616 E4.35457
G1 X127.186 Y103.006 E4.38695
G1 X128.007 Y103.459 E4.41814
G1 X128.758 Y103.961 E4.44818
G1 X129.517 Y104.573 E4.48061
G1 X130.191 Y105.226 E4.51182
G1 X130.805 Y105.935 E4.54302
G1 X131.355 Y106.696 E4.57425
G1 X131.817 Y107.472 E4.60429
G1 X132.24 Y108.349 E4.63667
G1 X132.569 Y109.227 E4.66786
G1 X132.82 Y110.132 E4.69909
G1 X132.991 Y111.059 E4.73045
G1 X133.086 Y112.189 E4.76816
G1 X133.1 Y112.83 E4.78949
G1 X133.099 Y121.895 E5.09099
G1 X133.089 Y122.64 E5.11577
G1 X133.035 Y123.577 E5.14699
G1 X132.897 Y124.506 E5.17823
G1 X132.678 Y125.418 E5.20942
G1 X132.38 Y126.308 E5.24064
G1 X132.003 Y127.168 E5.27187
G1 X131.553 Y127.99 E5.30304
G1 X131.031 Y128.771 E5.33428
G1 X130.442 Y129.501 E5.36548
G1 X129.817 Y130.152 E5.3955
G1 X129.082 Y130.793 E5.42793
G1 X128.322 Y131.343 E5.45913
G1 X127.516 Y131.824 E5.49035
G1 X126.671 Y132.232 E5.52156
G1 X125.793 Y132.563 E5.55277
G1 X124.889 Y132.816 E5.58399
G1 X123.962 Y132.988 E5.61535
G1 X122.811 Y133.086 E5.65377
G1 X122.17 Y133.1 E5.6751
G1 X113.07 Y133.099 E5.97776
G1 X112.354 Y133.089 E6.00158
G1 X111.418 Y133.035 E6.03276
G1 X110.489 Y132.896 E6.06401
G1 X109.577 Y132.677 E6.0952
G1 X108.687 Y132.378 E6.12643
G1 X107.828 Y132.001 E6.15763
G1 X107.005 Y131.55 E6.18884
G1 X106.225 Y131.028 E6.22006
G1 X105.521 Y130.462 E6.25011
G1 X104.819 Y129.787 E6.2825
G1 X104.204 Y129.078 E6.31371
G1 X103.674 Y128.347 E6.34374
G1 X103.174 Y127.511 E6.37614
G1 X102.766 Y126.666 E6.40735
G1 X102.435 Y125.788 E6.43856
G1 X102.183 Y124.884 E6.46978
G1 X102.011 Y123.955 E6.5012
G1 X101.913 Y122.776 E6.54055
G1 X101.9 Y122.158 E6.56111
G1 X101.901 Y113.031 E6.86467
G1 X101.911 Y112.348 E6.88739
G1 X101.966 Y111.411 E6.91861
G1 X102.105 Y110.483 E6.94982
G1 X102.325 Y109.571 E6.98102
G1 X102.625 Y108.681 E7.01226
G1 X103.002 Y107.822 E7.04346
G1 X103.453 Y107 E7.07465
G1 X103.976 Y106.22 E7.10588
G1 X104.543 Y105.516 E7.13595
G1 X105.218 Y104.815 E7.16831
G0 F6000 X105.481 Y105.117
G1 F1200 X106.162 Y104.524 E7.19835
G1 X106.894 Y103.994 E7.22841
G1 X107.669 Y103.531 E7.25843
G1 X108.482 Y103.138 E7.28847
G1 X109.327 Y102.818 E7.31852
G1 X110.196 Y102.575 E7.34853
G1 X111.084 Y102.409 E7.37858
G1 X112.223 Y102.313 E7.4166
G1 X112.83 Y102.3 E7.43679
G1 X121.793 Y102.3 E7.7349
G1 X122.637 Y102.311 E7.76297
G1 X123.539 Y102.364 E7.79303
G1 X124.432 Y102.496 E7.82305
G1 X125.31 Y102.707 E7.85308
G1 X126.166 Y102.995 E7.88312
G1 X126.993 Y103.357 E7.91315
G1 X127.785 Y103.792 E7.9432
G1 X128.536 Y104.294 E7.97325
G1 X129.239 Y104.861 E8.00329
G1 X129.889 Y105.488 E8.03332
G1 X130.481 Y106.17 E8.06336
G1 X131.011 Y106.901 E8.09339
G1 X131.473 Y107.677 E8.12343
G1 X131.866 Y108.49 E8.15346
G1 X132.184 Y109.335 E8.18349
G1 X132.427 Y110.205 E8.21354
G1 X132.592 Y111.093 E8.24358
G1 X132.687 Y112.223 E8.28129
G1 X132.7 Y112.83 E8.30149
G1 X132.699 Y121.89 E8.60282
G1 X132.69 Y122.617 E8.62701
G1 X132.639 Y123.519 E8.65706
G1 X132.508 Y124.413 E8.68711
G1 X132.299 Y125.291 E8.71713
G1 X132.013 Y126.148 E8.74717
G1 X131.652 Y126.976 E8.77722
G1 X131.22 Y127.768 E8.80722
G1 X130.719 Y128.52 E8.83728
G1 X130.153 Y129.224 E8.86732
G1 X129.528 Y129.875 E8.89734
G1 X128.847 Y130.469 E8.92739
G1 X128.116 Y131 E8.95744
G1 X127.342 Y131.464 E8.98746
G1 X126.529 Y131.858 E9.01751
G1 X125.685 Y132.178 E9.04753
G1 X124.815 Y132.423 E9.07759
G1 X123.928 Y132.589 E9.1076
G1 X122.777 Y132.687 E9.14603
G1 X122.17 Y132.7 E9.16622
G1 X113.075 Y132.699 E9.46872
G1 X112.377 Y132.69 E9.49194
G1 X111.476 Y132.639 E9.52195
G1 X110.582 Y132.507 E9.55201
G1 X109.704 Y132.298 E9.58203
G1 X108.847 Y132.011 E9.61209
G1 X108.02 Y131.65 E9.6421
G1 X107.227 Y131.217 E9.67215
G1 X106.476 Y130.716 E9.70218
G1 X105.772 Y130.15 E9.73222
G1 X105.121 Y129.524 E9.76226
G1 X104.528 Y128.843 E9.7923
G1 X103.998 Y128.112 E9.82233
G1 X103.534 Y127.337 E9.85237
G1 X103.14 Y126.524 E9.88242
G1 X102.82 Y125.68 E9.91244
G1 X102.576 Y124.81 E9.94249
G1 X102.41 Y123.922 E9.97254
G1 X102.313 Y122.767 E10.01109
G1 X102.3 Y122.158 E10.03135
G1 X102.301 Y113.036 E10.33475
G1 X102.31 Y112.371 E10.35687
G1 X102.362 Y111.469 E10.38692
G1 X102.494 Y110.576 E10.41694
G1 X102.704 Y109.698 E10.44697
G1 X102.991 Y108.841 E10.47703
G1 X103.353 Y108.014 E10.50706
G1 X103.786 Y107.222 E10.53708
G1 X104.288 Y106.471 E10.56712
G1 X104.855 Y105.767 E10.59719
G1 X105.481 Y105.117 E10.6272
G1 F2700 E5.6272
;MESH:cube2m.obj
G0 F6000 X112.924 Y111.835
G0 X117.5 Y121.9
;TYPE:WALL-INNER
G1 F2700 E10.6272
G1 F1200 X121.9 Y121.9 E10.77355
G1 X121.9 Y113.1 E11.06624
G1 X113.1 Y113.1 E11.35892
G1 X113.1 Y121.9 E11.65161
G1 X117.5 Y121.9 E11.79796
G0 F6000 X117.5 Y122.3
;TYPE:WALL-OUTER
G1 F1200 X122.3 Y122.3 E11.95761
G1 X122.3 Y112.7 E12.2769
G1 X112.7 Y112.7 E12.5962
G1 X112.7 Y122.3 E12.9155
G1 X117.5 Y122.3 E13.07515
G0 F6000 X117.5 Y121.54
;TYPE:SKIN
G1 F1200 X113.46 Y121.54 E13.20952
G1 X113.46 Y113.46 E13.47826
G1 X121.54 Y113.46 E13.747
G1 X121.54 Y121.54 E14.01574
G1 X117.5 Y121.54 E14.15012
G0 F6000 X117.5 Y121.8
G0 X113.272 Y121.728
G0 X113.2 Y121.014
G0 X113.66 Y121.014
G1 F1200 X113.986 Y121.34 E14.16545
G0 F6000 X114.552 Y121.34
G1 F1200 X113.66 Y120.448 E14.20741
G0 F6000 X113.66 Y119.882
G1 F1200 X115.118 Y121.34 E14.27599
G0 F6000 X115.683 Y121.34
G1 F1200 X113.66 Y119.316 E14.37117
G0 F6000 X113.66 Y118.751
G1 F1200 X116.249 Y121.34 E14.49294
G0 F6000 X116.815 Y121.34
G1 F1200 X113.66 Y118.185 E14.64135
G0 F6000 X113.66 Y117.619
G1 F1200 X117.38 Y121.34 E14.81635
G0 F6000 X117.946 Y121.34
G1 F1200 X113.66 Y117.054 E15.01795
G0 F6000 X113.66 Y116.488
G1 F1200 X118.512 Y121.34 E15.24617
G0 F6000 X119.077 Y121.34
G1 F1200 X113.66 Y115.922 E15.50099
G0 F6000 X113.66 Y115.357
G1 F1200 X119.643 Y121.34 E15.78241
G0 F6000 X120.209 Y121.34
G1 F1200 X113.66 Y114.791 E16.09046
G0 F6000 X113.66 Y114.225
G1 F1200 X120.775 Y121.34 E16.42513
G0 F6000 X121.34 Y121.34
G1 F1200 X113.66 Y113.66 E16.78637
G0 F6000 X114.226 Y113.66
G1 F1200 X121.34 Y120.775 E17.12102
G0 F6000 X121.34 Y120.209
G1 F1200 X114.792 Y113.66 E17.42904
G0 F6000 X115.357 Y113.66
G1 F1200 X121.34 Y119.643 E17.71046
G0 F6000 X121.34 Y119.077
G1 F1200 X115.923 Y113.66 E17.96526
G0 F6000 X116.489 Y113.66
G1 F1200 X121.34 Y118.512 E18.19346
G0 F6000 X121.34 Y117.946
G1 F1200 X117.054 Y113.66 E18.39506
G0 F6000 X117.62 Y113.66
G1 F1200 X121.34 Y117.38 E18.57004
G0 F6000 X121.34 Y116.815
G1 F1200 X118.186 Y113.66 E18.71841
G0 F6000 X118.752 Y113.66
G1 F1200 X121.34 Y116.249 E18.84017
G0 F6000 X121.34 Y115.683
G1 F1200 X119.317 Y113.66 E18.93532
G0 F6000 X119.883 Y113.66
G1 F1200 X121.34 Y115.118 E19.00388
G0 F6000 X121.34 Y114.552
G1 F1200 X120.449 Y113.66 E19.04581
G0 F6000 X121.014 Y113.66
G1 F1200 X121.34 Y113.986 E19.06115
G1 F2700 E14.06115
;MESH:NONMESH
G0 F300 X121.34 Y113.986 Z0.4
G0 F6000 X121.8 Y113.986
G0 X121.728 Y113.272
G0 X112.924 Y112.924
G0 X112.924 Y111.835
G0 X105.481 Y105.117
;TIME_ELAPSED:37.442803
;LAYER:1
M106 S85
;TYPE:SKIRT
G1 F2700 E19.06115
G1 F1200 X106.162 Y104.524 E19.09118
G1 X106.894 Y103.994 E19.12124
G1 X107.669 Y103.531 E19.15127
G1 X108.482 Y103.138 E19.1813
G1 X109.327 Y102.818 E19.21135
G1 X110.196 Y102.575 E19.24136
G1 X111.084 Y102.409 E19.27141
G1 X112.223 Y102.313 E19.30943
G1 X112.83 Y102.3 E19.32962
G1 X121.793 Y102.3 E19.62773
G1 X122.637 Y102.311 E19.65581
G1 X123.539 Y102.364 E19.68586
G1 X124.432 Y102.496 E19.71588
G1 X125.31 Y102.707 E19.74592
G1 X126.166 Y102.995 E19.77596
G1 X126.993 Y103.357 E19.80598
G1 X127.785 Y103.792 E19.83604
G1 X128.536 Y104.294 E19.86608
G1 X129.239 Y104.861 E19.89612
G1 X129.889 Y105.488 E19.92616
G1 X130.481 Y106.17 E19.95619
G1 X131.011 Y106.901 E19.98623
G1 X131.473 Y107.677 E20.01626
G1 X131.866 Y108.49 E20.0463
G1 X132.184 Y109.335 E20.07633
G1 X132.427 Y110.205 E20.10637
G1 X132.592 Y111.093 E20.13641
G1 X132.687 Y112.223 E20.17413
G1 X132.7 Y112.83 E20.19432
G1 X132.699 Y121.89 E20.49566
G1 X132.69 Y122.617 E20.51984
G1 X132.639 Y123.519 E20.54989
G1 X132.508 Y124.413 E20.57994
G1 X132.299 Y125.291 E20.60996
G1 X132.013 Y126.148 E20.64001
G1 X131.652 Y126.976 E20.67005
G1 X131.22 Y127.768 E20.70006
G1 X130.719 Y128.52 E20.73011
G1 X130.153 Y129.224 E20.76016
G1 X129.528 Y129.875 E20.79017
G1 X128.847 Y130.469 E20.82023
G1 X128.116 Y131 E20.85028
G1 X127.342 Y131.464 E20.88029
G1 X126.529 Y131.858 E20.91034
G1 X125.685 Y132.178 E20.94036
G1 X124.815 Y132.423 E20.97042
G1 X123.928 Y132.589 E21.00044
G1 X122.777 Y132.687 E21.03886
G1 X122.17 Y132.7 E21.05905
G1 X113.075 Y132.699 E21.36155
G1 X112.377 Y132.69 E21.38477
G1 X111.476 Y132.639 E21.41479
G1 X110.582 Y132.507 E21.44484
G1 X109.704 Y132.298 E21.47486
G1 X108.847 Y132.011 E21.50492
G1 X108.02 Y131.65 E21.53493
G1 X107.227 Y131.217 E21.56499
G1 X106.476 Y130.716 E21.59501
G1 X105.772 Y130.15 E21.62506
G1 X105.121 Y129.524 E21.6551
G1 X104.528 Y128.843 E21.68513
G1 X103.998 Y128.112 E21.71516
G1 X103.534 Y127.337 E21.7452
G1 X103.14 Y126.524 E21.77525
G1 X102.82 Y125.68 E21.80527
G1 X102.576 Y124.81 E21.83533
G1 X102.41 Y123.922 E21.86537
G1 X102.313 Y122.767 E21.90392
G1 X102.3 Y122.158 E21.92418
G1 X102.301 Y113.036 E22.22758
G1 X102.31 Y112.371 E22.2497
G1 X102.362 Y111.469 E22.27975
G1 X102.494 Y110.576 E22.30978
G1 X102.704 Y109.698 E22.3398
G1 X102.991 Y108.841 E22.36986
G1 X103.353 Y108.014 E22.39989
G1 X103.786 Y107.222 E22.42991
G1 X104.288 Y106.471 E22.45996
G1 X104.855 Y105.767 E22.49002
G1 X105.481 Y105.117 E22.52004
G1 F2700 E17.52004
;MESH:cube2m.obj
G0 F7500 X112.924 Y111.835
G0 X117.5 Y121.9
;TYPE:WALL-INNER
G1 F2700 E22.52004
G1 F1350 X121.9 Y121.9 E22.66638
G1 X121.9 Y113.1 E22.95907
G1 X113.1 Y113.1 E23.25176
G1 X113.1 Y121.9 E23.54445
G1 X117.5 Y121.9 E23.69079
G0 F7500 X117.5 Y122.3
;TYPE:WALL-OUTER
G1 F1350 X122.3 Y122.3 E23.85044
G1 X122.3 Y112.7 E24.16974
G1 X112.7 Y112.7 E24.48904
G1 X112.7 Y122.3 E24.80833
G1 X117.5 Y122.3 E24.96798
G0 F7500 X117.5 Y121.54
;TYPE:SKIN
G1 F1350 X113.46 Y121.54 E25.10235
G1 X113.46 Y113.46 E25.37109
G1 X121.54 Y113.46 E25.63984
G1 X121.54 Y121.54 E25.90858
G1 X117.5 Y121.54 E26.04295
G0 F7500 X117.5 Y121.8
G0 X120.773 Y121.8
G0 X120.773 Y121.34
G1 F1350 X121.34 Y120.773 E26.06962
G0 F7500 X121.34 Y120.207
G1 F1350 X120.207 Y121.34 E26.12291
G0 F7500 X119.642 Y121.34
G1 F1350 X121.34 Y119.642 E26.20278
G0 F7500 X121.34 Y119.076
G1 F1350 X119.076 Y121.34 E26.30927
G0 F7500 X118.51 Y121.34
G1 F1350 X121.34 Y118.51 E26.44239
G0 F7500 X121.34 Y117.945
G1 F1350 X117.945 Y121.34 E26.60208
G0 F7500 X117.379 Y121.34
G1 F1350 X121.34 Y117.379 E26.78839
G0 F7500 X121.34 Y116.813
G1 F1350 X116.813 Y121.34 E27.00133
G0 F7500 X116.248 Y121.34
G1 F1350 X121.34 Y116.248 E27.24084
G0 F7500 X121.34 Y115.682
G1 F1350 X115.682 Y121.34 E27.50697
G0 F7500 X115.116 Y121.34
G1 F1350 X121.34 Y115.116 E27.79973
G0 F7500 X121.34 Y114.551
G1 F1350 X114.551 Y121.34 E28.11907
G0 F7500 X113.985 Y121.34
G1 F1350 X121.34 Y113.985 E28.46502
G0 F7500 X121.1 Y113.66
G1 F1350 X113.66 Y121.099 E28.81495
G0 F7500 X113.66 Y120.533
G1 F1350 X120.534 Y113.66 E29.13826
G0 F7500 X119.968 Y113.66
G1 F1350 X113.66 Y119.968 E29.43497
G0 F7500 X113.66 Y119.402
G1 F1350 X119.403 Y113.66 E29.70508
G0 F7500 X118.837 Y113.66
G1 F1350 X113.66 Y118.836 E29.94857
G0 F7500 X113.66 Y118.271
G1 F1350 X118.271 Y113.66 E30.16545
G0 F7500 X117.706 Y113.66
G1 F1350 X113.66 Y117.705 E30.35574
G0 F7500 X113.66 Y117.139
G1 F1350 X117.14 Y113.66 E30.51941
G0 F7500 X116.574 Y113.66
G1 F1350 X113.66 Y116.574 E30.65647
G0 F7500 X113.66 Y116.008
G1 F1350 X116.009 Y113.66 E30.76694
G0 F7500 X115.443 Y113.66
G1 F1350 X113.66 Y115.442 E30.85078
G0 F7500 X113.66 Y114.877
G1 F1350 X114.877 Y113.66 E30.90803
G0 F7500 X114.312 Y113.66
G1 F1350 X113.66 Y114.311 E30.93867
G0 F7500 X113.66 Y113.745
G1 F1350 X113.746 Y113.66 E30.94269
G1 F2700 E25.94269
;MESH:NONMESH
G0 F300 X113.746 Y113.66 Z0.6
G0 F7500 X113.746 Y113.2
G0 X112.924 Y112.924
G0 X112.924 Y111.835
G0 X105.481 Y105.117
;TIME_ELAPSED:58.228171
;LAYER:2
M106 S170
;TYPE:SKIRT
G1 F2700 E30.94269
G1 F1200 X106.162 Y104.524 E30.97273
G1 X106.894 Y103.994 E31.00278
G1 X107.669 Y103.531 E31.03281
G1 X108.482 Y103.138 E31.06284
G1 X109.327 Y102.818 E31.0929
G1 X110.196 Y102.575 E31.12291
G1 X111.084 Y102.409 E31.15296
G1 X112.223 Y102.313 E31.19097
G1 X112.83 Y102.3 E31.21117
G1 X121.793 Y102.3 E31.50928
